public/services/seo-friendly.svg

<?xml version="1.0" encoding="iso-8859-1"?>
<!-- Generator: Adobe Illustrator 19.0.0, SVG Export Plug-In . SVG Version: 6.00 Build 0)  -->
<svg version="1.1" id="Capa_1" xmlns="http://www.w3.org/2000/svg" xmlns:xlink="http://www.w3.org/1999/xlink" x="0px" y="0px"
	 viewBox="0 0 512 512" style="enable-background:new 0 0 512 512;" xml:space="preserve">
<g>
	<g>
		<path d="M504.485,496.971H455.89v-297.08c0-4.15-3.364-7.515-7.515-7.515h-80.156c-4.151,0-7.515,3.365-7.515,7.515v297.08
			h-57.111V288.063c0-4.15-3.364-7.515-7.515-7.515h-80.156c-4.151,0-7.515,3.365-7.515,7.515v208.908h-57.111V328.141
			c0-4.15-3.364-7.515-7.515-7.515H63.625c-4.151,0-7.515,3.365-7.515,7.515v168.829H7.515c-4.151,0-7.515,3.365-7.515,7.515
			C0,508.635,3.364,512,7.515,512h496.97c4.151,0,7.515-3.365,7.515-7.515C511.999,500.335,508.636,496.971,504.485,496.971z
			 M136.266,496.971H71.139V335.656h65.127V496.971z M288.564,496.971h-65.127V295.578h65.127V496.971z M440.861,496.971h-65.127
			V207.406h65.127V496.971z"/>
	</g>
</g>
<g>
	<g>
		<path d="M488.008,5.895c-5.065-4.471-11.806-6.554-18.506-5.712l-64.125,8.016c-12.73,1.591-22.036,13.54-20.443,26.283
			c1.609,12.877,13.39,22.054,26.284,20.444l5.232-0.653c-78.705,91.256-172.272,138.418-238.39,162.12
			c-82.441,29.555-146.608,32.083-147.233,32.104c-12.963,0.405-23.191,11.282-22.799,24.247
			c0.388,12.804,10.721,22.833,23.526,22.833c0.238,0,0.477-0.003,0.722-0.011c2.853-0.086,70.874-2.488,160.489-34.42
			c50.378-17.952,97.782-41.783,140.893-70.83c3.442-2.318,4.352-6.99,2.032-10.431c-2.318-3.443-6.988-4.352-10.431-2.033
			c-42.068,28.346-88.343,51.607-137.539,69.137c-87.413,31.147-153.145,33.471-155.894,33.554l-0.272,0.004
			c-4.628,0-8.364-3.627-8.504-8.258c-0.142-4.69,3.558-8.624,8.25-8.771c0.656-0.021,66.654-2.443,151.832-32.978
			c71.359-25.581,173.893-77.814,257.126-181.378c4.144-5.156-0.237-12.985-6.788-12.164l-24.112,3.014
			c-4.18,0.517-8.24-2.222-9.301-6.304c-1.276-4.912,2.156-9.968,7.186-10.598l64.127-8.016c5.007-0.633,9.571,3.414,9.571,8.451
			v64.125c0,4.696-3.82,8.517-8.517,8.517s-8.517-3.82-8.517-8.517V68.23c0-3.071-1.986-5.943-4.858-7.028
			c-2.967-1.121-6.473-0.18-8.479,2.276c-28.067,34.391-60.025,65.511-94.988,92.495c-3.285,2.536-3.894,7.255-1.358,10.541
			c2.536,3.286,7.257,3.893,10.541,1.358c30.455-23.505,58.685-50.066,84.137-79.141c0.556,12.493,10.894,22.487,23.523,22.487
			c12.983,0,23.546-10.563,23.546-23.546V23.547C495.97,16.797,493.068,10.362,488.008,5.895z"/>
	</g>
</g>
<g>
</g>
<g>
</g>
<g>
</g>
<g>
</g>
<g>
</g>
<g>
</g>
<g>
</g>
<g>
</g>
<g>
</g>
<g>
</g>
<g>
</g>
<g>
</g>
<g>
</g>
<g>
</g>
<g>
</g>
</svg>

<svg width="512" height="512" viewBox="0 0 512 512" fill="none" xmlns="http://www.w3.org/2000/svg">
<g clip-path="url(#clip0)">
<path d="M504.485 496.971H455.89V199.891C455.89 195.741 452.526 192.376 448.375 192.376H368.219C364.068 192.376 360.704 195.741 360.704 199.891V496.971H303.593V288.063C303.593 283.913 300.229 280.548 296.078 280.548H215.922C211.771 280.548 208.407 283.913 208.407 288.063V496.971H151.296V328.141C151.296 323.991 147.932 320.626 143.781 320.626H63.625C59.474 320.626 56.11 323.991 56.11 328.141V496.97H7.515C3.364 496.97 0 500.335 0 504.485C0 508.635 3.364 512 7.515 512H504.485C508.636 512 512 508.635 512 504.485C511.999 500.335 508.636 496.971 504.485 496.971ZM136.266 496.971H71.139V335.656H136.266V496.971ZM288.564 496.971H223.437V295.578H288.564V496.971ZM440.861 496.971H375.734V207.406H440.861V496.971Z" fill="white"/>
<path d="M488.008 5.89499C482.943 1.42399 476.202 -0.659008 469.502 0.182992L405.377 8.19899C392.647 9.78999 383.341 21.739 384.934 34.482C386.543 47.359 398.324 56.536 411.218 54.926L416.45 54.273C337.745 145.529 244.178 192.691 178.06 216.393C95.619 245.948 31.452 248.476 30.827 248.497C17.864 248.902 7.63599 259.779 8.02799 272.744C8.41599 285.548 18.749 295.577 31.554 295.577C31.792 295.577 32.031 295.574 32.276 295.566C35.129 295.48 103.15 293.078 192.765 261.146C243.143 243.194 290.547 219.363 333.658 190.316C337.1 187.998 338.01 183.326 335.69 179.885C333.372 176.442 328.702 175.533 325.259 177.852C283.191 206.198 236.916 229.459 187.72 246.989C100.307 278.136 34.575 280.46 31.826 280.543L31.554 280.547C26.926 280.547 23.19 276.92 23.05 272.289C22.908 267.599 26.608 263.665 31.3 263.518C31.956 263.497 97.954 261.075 183.132 230.54C254.491 204.959 357.025 152.726 440.258 49.162C444.402 44.006 440.021 36.177 433.47 36.998L409.358 40.012C405.178 40.529 401.118 37.79 400.057 33.708C398.781 28.796 402.213 23.74 407.243 23.11L471.37 15.094C476.377 14.461 480.941 18.508 480.941 23.545V87.67C480.941 92.366 477.121 96.187 472.424 96.187C467.727 96.187 463.907 92.367 463.907 87.67V68.23C463.907 65.159 461.921 62.287 459.049 61.202C456.082 60.081 452.576 61.022 450.57 63.478C422.503 97.869 390.545 128.989 355.582 155.973C352.297 158.509 351.688 163.228 354.224 166.514C356.76 169.8 361.481 170.407 364.765 167.872C395.22 144.367 423.45 117.806 448.902 88.731C449.458 101.224 459.796 111.218 472.425 111.218C485.408 111.218 495.971 100.655 495.971 87.672V23.547C495.97 16.797 493.068 10.362 488.008 5.89499Z" fill="white"/>
</g>
<defs>
<clipPath id="clip0">
<rect width="512" height="512" fill="white"/>
</clipPath>
</defs>
</svg>
